X: 32386
T: Piper In The Meadow Straying, The
R: hornpipe
M: 4/4
K: Gmajor
Bc|dedc B2BA|GFGA B2G2|ABcA G2F2|G2B2 B2 A2|
dedc B3A|GFGA B2G2|ABcA G2F2|G2B2 G2:|
|:D2|A3B c2A2|BABc d3B|cBcd e2g2|fed^c d2 (3AB=c|
dedc B3A|GFGA B2G2|ABcA G2F2|G2B2 B2 A2|
dedc B3A|G3A B2G2|ABcA GFEF|G2B2 G2:|

